assets/img/braze_icons/align-top-01.svg

<svg fill="none" height="24" viewBox="0 0 24 24" width="24" xmlns="http://www.w3.org/2000/svg"><g fill="#801ed7"><path d="m2 3c0-.55228.44772-1 1-1h18c.5523 0 1 .44772 1 1s-.4477 1-1 1h-18c-.55228 0-1-.44772-1-1z"/><path d="m13 9.41421 5.2929 5.29289c.3905.3905 1.0237.3905 1.4142 0s.3905-1.0237 0-1.4142l-7-7.00001c-.3905-.39052-1.0237-.39052-1.4142 0l-7.00001 7.00001c-.39052.3905-.39052 1.0237 0 1.4142.39053.3905 1.02369.3905 1.41422 0l5.29289-5.29289v11.58579c0 .5523.4477 1 1 1s1-.4477 1-1z"/></g></svg>

<svg width="24" height="24" viewBox="0 0 24 24" fill="none" xmlns="http://www.w3.org/2000/svg">
<path d="M2 3C2 2.44772 2.44772 2 3 2H21C21.5523 2 22 2.44772 22 3C22 3.55228 21.5523 4 21 4H3C2.44772 4 2 3.55228 2 3Z" fill="#801ED7"/>
<path d="M13 9.41421L18.2929 14.7071C18.6834 15.0976 19.3166 15.0976 19.7071 14.7071C20.0976 14.3166 20.0976 13.6834 19.7071 13.2929L12.7071 6.29289C12.3166 5.90237 11.6834 5.90237 11.2929 6.29289L4.29289 13.2929C3.90237 13.6834 3.90237 14.3166 4.29289 14.7071C4.68342 15.0976 5.31658 15.0976 5.70711 14.7071L11 9.41421L11 21C11 21.5523 11.4477 22 12 22C12.5523 22 13 21.5523 13 21L13 9.41421Z" fill="#801ED7"/>
</svg>
